X: 279
T: Xiao kanhua
%%abc-version 2.0
%%abcx-abcm2ps-target-version 5.9.1 (29 Sep 2008)
%%abc-creator hum2abc beta
%%abcx-conversion-date 2013/10/02 07:52:29
%%abc-edited-by Helmut Schaffrath
%%humdrum-veritas 2180234309
%%humdrum-veritas-data 1342756950
%%continueall 1
%%barnumbers 0
L: 1/8
M: 2/4
K: F
A c d f [I:setbarnb 1]| 
c A c f | 
d c B A/ c/ | 
G4 | 
A c d f | 
c A c f | 
d c B A/ c/ | 
G4 | 
A c A G | 
A c A G | 
f2A G | 
F2E D | 
D c A G | 
F G A c | 
G F E D | 
C4 | 
G F G A | 
F A A G | 
F2E D | 
D c A G | 
F G A c | 
G F E D | 
C4 |]  



